material/.icons/material/focus-auto.svg

<svg xmlns="http://www.w3.org/2000/svg" viewBox="0 0 24 24"><path d="M19 19h-4v2h4c1.1 0 2-.9 2-2v-4h-2m0-12h-4v2h4v4h2V5c0-1.1-.9-2-2-2M5 5h4V3H5c-1.1 0-2 .9-2 2v4h2m0 6H3v4c0 1.1.9 2 2 2h4v-2H5v-4m3-8c-1.1 0-2 .9-2 2v8h2v-4h2v4h2V9c0-1.1-.9-2-2-2H8m0 2h2v2H8V9m5-2v10h2v-4h2v-2h-2V9h3V7h-5z"/></svg>

<?xml version="1.0" encoding="UTF-8"?><!DOCTYPE svg PUBLIC "-//W3C//DTD SVG 1.1//EN" "http://www.w3.org/Graphics/SVG/1.1/DTD/svg11.dtd"><svg xmlns="http://www.w3.org/2000/svg" xmlns:xlink="http://www.w3.org/1999/xlink" version="1.1" id="mdi-focus-auto" width="24" height="24" viewBox="0 0 24 24"><path d="M19 19H15V21H19C20.1 21 21 20.1 21 19V15H19M19 3H15V5H19V9H21V5C21 3.9 20.1 3 19 3M5 5H9V3H5C3.9 3 3 3.9 3 5V9H5M5 15H3V19C3 20.1 3.9 21 5 21H9V19H5V15M8 7C6.9 7 6 7.9 6 9V17H8V13H10V17H12V9C12 7.9 11.1 7 10 7H8M8 9H10V11H8V9M13 7V17H15V13H17V11H15V9H18V7H13Z" /></svg>
